packages/kaspersky-hexa-ui-icons/src/iconsSVGs/24/Amazon.svg

<svg width="24" height="24" viewBox="0 0 24 24" fill="none" xmlns="http://www.w3.org/2000/svg">
<path d="M1.53818 17.382C1.60181 17.278 1.70362 17.2715 1.84364 17.3625C5.02544 19.2475 8.48727 20.19 12.2291 20.19C14.7236 20.19 17.1864 19.7155 19.6173 18.7665C19.6809 18.7405 19.7732 18.7015 19.8941 18.6495C20.015 18.5975 20.1009 18.5585 20.1518 18.5325C20.3427 18.4545 20.4923 18.4935 20.6005 18.6495C20.7086 18.8055 20.6736 18.9485 20.4955 19.0785C20.2664 19.2475 19.9736 19.4425 19.6173 19.6635C18.5227 20.3265 17.3009 20.84 15.9518 21.204C14.6027 21.568 13.2854 21.75 12 21.75C10.0145 21.75 8.13726 21.3957 6.36818 20.6872C4.59908 19.9787 3.01454 18.981 1.61455 17.694C1.53818 17.629 1.5 17.564 1.5 17.499C1.5 17.46 1.51271 17.421 1.53818 17.382ZM7.28455 11.8245C7.28455 10.9275 7.5009 10.1605 7.93364 9.52349C8.36635 8.88648 8.95817 8.4055 9.70909 8.08049C10.3964 7.7815 11.2427 7.567 12.2482 7.43699C12.5918 7.39799 13.1518 7.34598 13.9282 7.28099V6.94949C13.9282 6.11749 13.8391 5.5585 13.6609 5.27249C13.3936 4.8825 12.9736 4.6875 12.4009 4.6875H12.2482C11.8282 4.7265 11.4655 4.863 11.16 5.09699C10.8545 5.33099 10.6573 5.656 10.5682 6.07199C10.5173 6.33199 10.39 6.48149 10.1864 6.52049L7.99091 6.24749C7.77453 6.19549 7.66636 6.07849 7.66636 5.89649C7.66636 5.85749 7.67272 5.812 7.68545 5.75999C7.90181 4.603 8.43317 3.745 9.27955 3.186C10.1259 2.62699 11.1154 2.31499 12.2482 2.25H12.7255C14.1764 2.25 15.3091 2.63351 16.1236 3.4005C16.2514 3.53109 16.3695 3.67123 16.4768 3.81975C16.585 3.96925 16.6709 4.1025 16.7345 4.2195C16.7982 4.3365 16.8554 4.5055 16.9064 4.7265C16.9573 4.94749 16.9954 5.10025 17.0209 5.18474C17.0464 5.26924 17.0654 5.45125 17.0782 5.73074C17.0909 6.01024 17.0973 6.17599 17.0973 6.22799V10.947C17.0973 11.285 17.145 11.5937 17.2405 11.8732C17.3359 12.1527 17.4282 12.3542 17.5173 12.4777C17.6063 12.6012 17.7527 12.7995 17.9564 13.0725C18.0327 13.1895 18.0709 13.2935 18.0709 13.3845C18.0709 13.4885 18.02 13.5795 17.9182 13.6575C16.8618 14.5935 16.2891 15.1005 16.2 15.1785C16.0473 15.2955 15.8627 15.3085 15.6464 15.2175C15.4682 15.0615 15.3123 14.912 15.1786 14.769C15.045 14.626 14.9495 14.522 14.8923 14.457C14.835 14.392 14.7427 14.2652 14.6155 14.0767C14.4882 13.8882 14.3991 13.7615 14.3482 13.6965C13.6354 14.4895 12.9355 14.9835 12.2482 15.1785C11.8154 15.3085 11.2809 15.3735 10.6445 15.3735C9.66453 15.3735 8.85955 15.0647 8.22955 14.4472C7.59955 13.8297 7.28455 12.9555 7.28455 11.8245ZM10.5682 11.4345C10.5682 11.9415 10.6923 12.3477 10.9405 12.6532C11.1886 12.9587 11.5227 13.1115 11.9427 13.1115C11.9809 13.1115 12.035 13.105 12.105 13.092C12.175 13.079 12.2227 13.0725 12.2482 13.0725C12.7827 12.9295 13.1964 12.5785 13.4891 12.0195C13.6291 11.7725 13.7341 11.5027 13.8041 11.2102C13.8741 10.9177 13.9123 10.6805 13.9186 10.4985C13.925 10.3165 13.9282 10.0175 13.9282 9.60149V9.11399C13.19 9.11399 12.63 9.16599 12.2482 9.26999C11.1282 9.59499 10.5682 10.3165 10.5682 11.4345ZM18.5864 17.7135C18.6118 17.6615 18.65 17.6095 18.7009 17.5575C19.0191 17.3365 19.3245 17.187 19.6173 17.109C20.1009 16.979 20.5718 16.9075 21.03 16.8945C21.1573 16.8815 21.2782 16.888 21.3927 16.914C21.9655 16.966 22.3091 17.0635 22.4236 17.2065C22.4745 17.2845 22.5 17.4015 22.5 17.5575V17.694C22.5 18.149 22.3791 18.6852 22.1373 19.3027C21.8954 19.9202 21.5582 20.4175 21.1255 20.7945C21.0618 20.8465 21.0045 20.8725 20.9536 20.8725C20.9282 20.8725 20.9027 20.866 20.8773 20.853C20.8009 20.814 20.7818 20.7425 20.82 20.6385C21.2909 19.5075 21.5264 18.721 21.5264 18.279C21.5264 18.136 21.5009 18.032 21.45 17.967C21.3227 17.811 20.9664 17.733 20.3809 17.733C20.1645 17.733 19.91 17.746 19.6173 17.772C19.2991 17.811 19.0064 17.85 18.7391 17.889C18.6627 17.889 18.6118 17.876 18.5864 17.85C18.5609 17.824 18.5545 17.798 18.5673 17.772C18.5673 17.759 18.5736 17.7395 18.5864 17.7135Z" fill="black"/>
</svg>

<svg xmlns="http://www.w3.org/2000/svg" width="24" height="24" fill="none" viewBox="0 0 24 24"><path fill="#000" d="M1.5382 17.382q.0954-.156.3054-.0195Q6.6163 20.19 12.2291 20.19q3.7418 0 7.3882-1.4235.0954-.039.2768-.117t.2577-.117q.2864-.117.4487.117t-.105.429q-.3437.2535-.8782.585-1.6419.9945-3.6655 1.5405T12 21.75q-2.9782 0-5.6318-1.0628-2.6537-1.0627-4.7536-2.9932-.1146-.0975-.1146-.195 0-.0585.0382-.117m5.7464-5.5575q0-1.3455.649-2.301.6492-.9555 1.7755-1.443 1.0309-.4485 2.5391-.6435.5154-.0585 1.68-.156v-.3315q0-1.248-.2673-1.677-.401-.585-1.26-.585h-.1527q-.63.0585-1.0882.4095t-.5918.975q-.0764.39-.3818.4485l-2.1955-.273q-.3245-.078-.3245-.351 0-.0585.019-.1365.3246-1.7355 1.5942-2.574 1.2694-.8385 2.9686-.936h.4773q2.1764 0 3.3981 1.1505a3.7 3.7 0 0 1 .3532.4192q.1623.2244.2577.3998.0955.1755.1719.507t.1145.4582.0573.546q.019.4193.0191.4973v4.719q0 .507.1432.9262t.2768.6045.4391.5948q.1145.1755.1145.312 0 .156-.1527.273-1.5846 1.404-1.7182 1.521-.2291.1755-.5536.039-.2673-.234-.4678-.4485a16 16 0 0 1-.2863-.312q-.086-.0975-.2768-.3803-.191-.2827-.2673-.3802-1.0691 1.1895-2.1 1.482-.6491.195-1.6037.195-1.47 0-2.415-.9263t-.945-2.6227m3.2836-.39q0 .7605.3723 1.2187.3722.4583 1.0022.4583.0573 0 .1623-.0195t.1432-.0195q.8018-.2145 1.2409-1.053.21-.3705.315-.8093.105-.4387.1145-.7117t.0096-.897V9.114q-1.1073 0-1.68.156-1.68.4875-1.68 2.1645m8.0182 6.279q.0381-.078.1145-.156.4773-.3315.9164-.4485.7254-.195 1.4127-.2145.191-.0195.3627.0195.8592.078 1.0309.2925.0764.117.0764.351v.1365q0 .6825-.3627 1.6087t-1.0118 1.4918q-.0955.078-.1719.078a.166.166 0 0 1-.0763-.0195q-.1146-.0585-.0573-.2145.7064-1.6965.7064-2.3595 0-.2145-.0764-.312-.1909-.234-1.0691-.234-.3246 0-.7636.039-.4773.0585-.8782.117-.1146 0-.1527-.039-.0383-.039-.0191-.078 0-.0195.0191-.0585"/></svg>
